icons/desktop/16/svg/canvas-16.svg

<svg width="16" height="16" viewBox="0 0 16 16" fill="none" xmlns="http://www.w3.org/2000/svg">
<path d="M5.80371 6.92773C6.33668 6.20682 7.41728 6.2107 7.94531 6.93555L9.52441 9.10352L9.59082 8.9834C10.0618 8.1274 11.2904 8.1178 11.7734 8.9668C11.9234 9.22979 12.001 9.52709 12.001 9.83008V10.499C12.001 11.327 11.329 11.999 10.501 11.999L10.5 12H5.5C4.672 12 4 11.328 4 10.5V10.0283C4 9.60036 4.13665 9.18285 4.3916 8.83887L5.80371 6.92773Z" fill="black"/>
<path d="M11 5C11.5523 5 12 5.44772 12 6C12 6.55228 11.5523 7 11 7C10.4477 7 10 6.55228 10 6C10 5.44772 10.4477 5 11 5Z" fill="black"/>
<path fill-rule="evenodd" clip-rule="evenodd" d="M8 1C9.35414 1 10.8879 1.06812 12.5615 1.26074C13.9499 1.42036 15 2.60179 15 3.99707V12.0059C15 13.3855 13.9763 14.5763 12.5859 14.7373C11.2006 14.8973 9.66484 15 8 15C6.64586 15 5.11208 14.9319 3.43848 14.7393C2.05011 14.5796 1 13.3982 1 12.0029V3.99414C1 2.61448 2.02371 1.42365 3.41406 1.2627C4.79938 1.10266 6.33516 1 8 1ZM8 2.5C6.39691 2.5 4.91858 2.59897 3.58594 2.75293C2.97243 2.82411 2.5 3.3559 2.5 3.99414V12.0029C2.5 12.6376 2.97987 13.1765 3.60938 13.249C5.21967 13.4344 6.69621 13.5 8 13.5C9.60309 13.5 11.0814 13.401 12.4141 13.2471C13.0276 13.1759 13.5 12.6441 13.5 12.0059V3.99707C13.5 3.36244 13.0201 2.82349 12.3906 2.75098C10.7803 2.56563 9.30379 2.5 8 2.5Z" fill="black"/>
</svg>

<!-- This Source Code Form is subject to the terms of the Mozilla Public
   - License, v. 2.0. If a copy of the MPL was not distributed with this
   - file, You can obtain one at http://mozilla.org/MPL/2.0/. -->
<svg xmlns="http://www.w3.org/2000/svg" width="16" height="16" fill="context-fill" fill-opacity="context-fill-opacity" viewBox="0 0 16 16">
    <path d="M5.804 6.928a1.33 1.33 0 0 1 2.141.008l1.58 2.168.066-.12a1.251 1.251 0 0 1 2.182-.017c.15.263.228.56.228.863v.669a1.5 1.5 0 0 1-1.5 1.5L10.5 12h-5A1.5 1.5 0 0 1 4 10.5v-.472c0-.428.137-.845.392-1.19zM11 5a1 1 0 1 1 0 2 1 1 0 0 1 0-2" />
    <path fill-rule="evenodd" d="M8 1c1.354 0 2.888.068 4.562.26A2.76 2.76 0 0 1 15 3.998v8.009c0 1.38-1.024 2.57-2.414 2.731a40 40 0 0 1-9.148.002A2.76 2.76 0 0 1 1 12.003V3.994c0-1.38 1.024-2.57 2.414-2.731A40 40 0 0 1 8 1m0 1.5c-1.603 0-3.081.099-4.414.253A1.24 1.24 0 0 0 2.5 3.994v8.009c0 .635.48 1.174 1.11 1.246a38.487 38.487 0 0 0 8.805-.002 1.24 1.24 0 0 0 1.085-1.241V3.997c0-.635-.48-1.174-1.11-1.246A38 38 0 0 0 8 2.5" clip-rule="evenodd" />
</svg>
